X:2031
T:Boda Waltz
R:Waltz
C:Trad.
O:Sweden
Z:Paul Hardy's Session Tunebook 2015 (see www.paulhardy.net). Creative Commons cc by-nc-sa licenced.
M:3/4
L:1/8
Q:1/4=130
K:Em
"Em"B3 cBA|B3 cBA|B4 e2|B3 Bef|"C"g4 g2|"B7"f4 e2|"Bm"f3gf2|"Em"B6|
"C"e4 e2|"D7"d4 c2|"Em"B4 A2|G3 EGA|B3 AGB|"B7"A3 GFB|"Em"E6-|+fine+E6||
"C"e4 e2|g3 f e2|"G"d6|B6|"D7"A3 B c2|c2 B2 A2|"G"B4 c2|d6|
"C"e4 e2|g3 f e2|"G"d6|B6|"D7"A3 B c2|D2 E2 F2|"G"G3 AGF|+D.C.+G6|]

